icon-themes/sifr_svg/cmd/sc_addwatch.svg

<svg viewBox="0 0 16 16" xmlns="http://www.w3.org/2000/svg"><path d="m7.5 4c-.3743815 0-.7.1515643-.9824219.4l-4.7175781 4.2757812v.0039063a2.5 2.5 0 0 0 -.8 1.8203125 2.5 2.5 0 0 0 2.5 2.5 2.5 2.5 0 0 0 2.5-2.5 2.5 2.5 0 0 0 -.5-1.5h2.0019531a2.5 2.5 0 0 0 -.5019531 1.5 2.5 2.5 0 0 0 2.5 2.5 2.5 2.5 0 0 0 2.5-2.5 2.5 2.5 0 0 0 -2-2.453125l3.130859-2.8886719c.151074-.1582031.233269-.1582031.369141-.1582031h.5v.5c0 .2761424.223858.5.5.5s.5-.2238576.5-.5v-.5c0-.7012708-.15753-1-1-1h-.5c-.374381 0-.714607.1515643-1 .4l-3.9667969 3.6h-4.5175781l3.1152344-2.8417969c.1510731-.1582031.2332682-.1582031.3691406-.1582031h.5v.5c0 .2761424.2238576.5.5.5s.5-.2238576.5-.5v-.5c0-.7012708-.1575303-1-1-1zm-4 5a1.5 1.5 0 0 1 1.5 1.5 1.5 1.5 0 0 1 -1.5 1.5 1.5 1.5 0 0 1 -1.5-1.5 1.5 1.5 0 0 1 1.5-1.5zm6 0a1.5 1.5 0 0 1 1.5 1.5 1.5 1.5 0 0 1 -1.5 1.5 1.5 1.5 0 0 1 -1.5-1.5 1.5 1.5 0 0 1 1.5-1.5z" fill="#555753"/></svg>

<svg xmlns="http://www.w3.org/2000/svg" viewBox="0 0 16 16">
  <path
     style="fill:#555753"
     d="M 7.5 4 C 7.1256185 4 6.8 4.1515643 6.5175781 4.4 L 1.8 8.6757812 L 1.8 8.6796875 A 2.5 2.5 0 0 0 1 10.5 A 2.5 2.5 0 0 0 3.5 13 A 2.5 2.5 0 0 0 6 10.5 A 2.5 2.5 0 0 0 5.5 9 L 7.5019531 9 A 2.5 2.5 0 0 0 7 10.5 A 2.5 2.5 0 0 0 9.5 13 A 2.5 2.5 0 0 0 12 10.5 A 2.5 2.5 0 0 0 10 8.046875 L 13.130859 5.1582031 C 13.281933 5 13.364128 5 13.5 5 L 14 5 L 14 5.5 C 14 5.7761424 14.223858 6 14.5 6 C 14.776142 6 15 5.7761424 15 5.5 L 15 5 C 15 4.2987292 14.84247 4 14 4 L 13.5 4 C 13.125619 4 12.785393 4.1515643 12.5 4.4 L 8.5332031 8 L 4.015625 8 L 7.1308594 5.1582031 C 7.2819325 5 7.3641276 5 7.5 5 L 8 5 L 8 5.5 C 8 5.7761424 8.2238576 6 8.5 6 C 8.7761424 6 9 5.7761424 9 5.5 L 9 5 C 9 4.2987292 8.8424697 4 8 4 L 7.5 4 z M 3.5 9 A 1.5 1.5 0 0 1 5 10.5 A 1.5 1.5 0 0 1 3.5 12 A 1.5 1.5 0 0 1 2 10.5 A 1.5 1.5 0 0 1 3.5 9 z M 9.5 9 A 1.5 1.5 0 0 1 11 10.5 A 1.5 1.5 0 0 1 9.5 12 A 1.5 1.5 0 0 1 8 10.5 A 1.5 1.5 0 0 1 9.5 9 z "
     />
</svg>
